X:2607
T:Polska efter Rondahl i A
R:Slängpolska
O:Gotland, Slite
B:Rondahls nothäfte
B:[[http://www.smus.se/earkiv/fmk/browselarge.php?lang=sw&katalogid=MMD+50&bildnr=00010|SMUS - katalog MMD50 bild 10]] nr 13
N:ur ett notehäfte märkt "Carl Nicolaus Arvid Rondahl"
Z:Nils L
M:3/4
L:1/16
K:A
c4 cBAG A4 | cecA BdBG A4 | agfe fedc dcBA | Acec ABeB E4 |
c4 cBAG A4 | cecA BdBG A4 | agfe fedc dcdf | edcB B4 A4 ::
Acec Acec Acec | d2d2 fedc d4 | Bded Bded Bded | B2a2 gegb a4 |
c4 cBAG A4 | cecA BdBG A4 | agfe fedc dcdf | edcB B4 A4 :|
(:musicend:)
(:music:)
